apps/scalable/chat/chat.svg

<svg xmlns="http://www.w3.org/2000/svg" style="isolation:isolate" width="256" height="256"><defs><filter id="a" width="270.648" height="254.338" x="-7.32" y="2.95" filterUnits="userSpaceOnUse"><feGaussianBlur xmlns="http://www.w3.org/2000/svg" in="SourceGraphic" stdDeviation="4.294"/><feOffset xmlns="http://www.w3.org/2000/svg" dy="4" result="pf_100_offsetBlur"/><feFlood xmlns="http://www.w3.org/2000/svg" flood-opacity=".4"/><feComposite xmlns="http://www.w3.org/2000/svg" in2="pf_100_offsetBlur" operator="in" result="pf_100_dropShadow"/><feBlend xmlns="http://www.w3.org/2000/svg" in="SourceGraphic" in2="pf_100_dropShadow"/></filter></defs><g filter="url(#a)"><linearGradient id="b" x1="-.033" x2="1.433" y1="-.071" y2="1.395" gradientTransform="matrix(244.648 0 0 228.338 5.676 11.947)" gradientUnits="userSpaceOnUse"><stop offset="0%" stop-color="#f37e40"/><stop offset="100%" stop-color="#fac82e"/></linearGradient><path fill="url(#b)" d="M165.685 11.947c74.055 0 84.639 10.557 84.639 84.544v59.251c0 73.986-10.584 84.543-84.639 84.543h-75.37c-74.055 0-84.639-10.557-84.639-84.543V96.491c0-73.987 10.584-84.544 84.639-84.544h75.37z"/></g><g opacity=".4"><linearGradient id="c" x1=".517" x2=".517" y2="1"><stop offset="0%" stop-color="#fff"/><stop offset="12.5%" stop-opacity=".098" stop-color="#fff"/><stop offset="92.5%" stop-opacity=".098"/><stop offset="100%" stop-opacity=".498"/></linearGradient><path fill="none" stroke="url(#c)" stroke-linecap="round" stroke-linejoin="round" stroke-width="4.077" d="M165.685 11.947c74.055 0 84.639 10.557 84.639 84.544v59.251c0 73.986-10.584 84.543-84.639 84.543h-75.37c-74.055 0-84.639-10.557-84.639-84.543V96.491c0-73.987 10.584-84.544 84.639-84.544h75.37z" vector-effect="non-scaling-stroke"/></g><path fill="#FFF" d="M249.643 83.58L44.234 236.61c11.562 2.311 26.426 3.019 45.523 3.019h75.37c74.055 0 84.639-10.558 84.639-84.544V95.834c0-4.303-.041-8.37-.123-12.254z" opacity=".1"/><g filter="url(#bPqDZVg0mpBDojIcmZsN8Ciq1QJWnAG7)"><linearGradient id="d" x1=".631" x2=".636" y1=".775" y2=".141" gradientTransform="matrix(163.099 0 0 89.541 45.892 100.995)" gradientUnits="userSpaceOnUse"><stop offset="0%" stop-opacity=".996" stop-color="#f3e6d2"/><stop offset="100%" stop-color="#f7f4ee"/></linearGradient><path fill="url(#d)" d="M45.892 100.995v53.411c0 7.162 1.352 12.315 3.99 15.456 2.513 3.015 7.41 4.561 14.698 4.561h17.307l22.824 16.113 22.826-16.113h62.767c7.288 0 12.184-1.546 14.697-4.561 2.639-3.141 3.99-8.294 3.99-15.456v-53.411H45.892z"/><linearGradient id="e" x1=".361" x2=".361" y1=".01" y2=".967" gradientTransform="matrix(163.099 0 0 122.164 45.892 68.371)" gradientUnits="userSpaceOnUse"><stop offset="0%" stop-color="#fdfdfb"/><stop offset="100%" stop-color="#f0e9df"/></linearGradient><path fill="url(#e)" d="M64.579 68.375c-7.286-.091-12.183 1.628-14.696 4.644-2.638 3.141-3.991 8.294-3.991 15.456v63.418l35.995 22.53 22.825 16.112 22.825-16.112 81.454-61.85V88.475c0-7.162-1.352-12.315-3.99-15.456-2.513-3.016-7.409-4.644-14.697-4.644H64.579z"/><path fill="#FBC58C" d="M78.512 100.995v8.155h97.86v-8.155h-97.86z"/><g opacity=".1"><linearGradient id="f" x1=".612" x2=".714" y1=".365" y2=".498" gradientTransform="matrix(81.454 0 0 61.85 127.537 112.573)" gradientUnits="userSpaceOnUse"><stop offset="0%" stop-opacity=".996" stop-color="#e6a240"/><stop offset="100%" stop-opacity=".275" stop-color="#eab261"/></linearGradient><path fill="url(#f)" d="M208.991 112.573l-81.454 61.85h62.767c7.288 0 12.184-1.545 14.697-4.561 2.638-3.141 3.99-8.294 3.99-15.456v-41.833z"/></g><g opacity=".1"><linearGradient id="g" x1=".368" x2=".178" y1=".105" y2=".353" gradientTransform="matrix(35.994 0 0 22.704 45.892 151.893)" gradientUnits="userSpaceOnUse"><stop offset="0%" stop-opacity=".996" stop-color="#e6a240"/><stop offset="100%" stop-opacity=".275" stop-color="#eab261"/></linearGradient><path fill="url(#g)" d="M45.892 151.893v2.513c0 7.162 1.353 12.315 3.991 15.456 2.513 3.016 7.459 5.414 14.696 4.561h17.308l-35.995-22.53z"/></g><path fill="#FBC58C" d="M78.512 125.459v8.155h48.93v-8.155h-48.93z"/><path fill="#FFF" d="M64.58 68.375c-7.287-.091-12.185 1.629-14.698 4.645-2.638 3.141-3.99 8.294-3.99 15.455v2.039c0-7.162 1.352-12.314 3.99-15.456 2.513-3.015 7.411-4.736 14.698-4.644H190.304c7.288 0 12.185 1.629 14.697 4.644 2.639 3.142 3.99 8.294 3.99 15.456v-2.039c0-7.161-1.351-12.314-3.99-15.455-2.512-3.016-7.409-4.645-14.697-4.645H64.58z"/></g><defs><filter id="bPqDZVg0mpBDojIcmZsN8Ciq1QJWnAG7" width="223.099" height="182.164" x="15.89" y="42.37" filterUnits="userSpaceOnUse"><feGaussianBlur xmlns="http://www.w3.org/2000/svg" in="SourceGraphic" stdDeviation="4.294"/><feOffset xmlns="http://www.w3.org/2000/svg" dy="4" result="pf_100_offsetBlur"/><feFlood xmlns="http://www.w3.org/2000/svg" flood-opacity=".4"/><feComposite xmlns="http://www.w3.org/2000/svg" in2="pf_100_offsetBlur" operator="in" result="pf_100_dropShadow"/><feBlend xmlns="http://www.w3.org/2000/svg" in="SourceGraphic" in2="pf_100_dropShadow"/></filter></defs></svg>

<svg xmlns="http://www.w3.org/2000/svg" style="isolation:isolate" width="256" height="256" viewBox="0 0 256 256">
 <defs>
  <filter id="a35fR1B9MCvZhATyroLYynKWwBhOoEZ5" width="270.648" height="254.338" x="-7.32" y="2.95" filterUnits="userSpaceOnUse">
   <feGaussianBlur xmlns="http://www.w3.org/2000/svg" in="SourceGraphic" stdDeviation="4.294"/>
   <feOffset xmlns="http://www.w3.org/2000/svg" dx="0" dy="4" result="pf_100_offsetBlur"/>
   <feFlood xmlns="http://www.w3.org/2000/svg" flood-opacity=".4"/>
   <feComposite xmlns="http://www.w3.org/2000/svg" in2="pf_100_offsetBlur" operator="in" result="pf_100_dropShadow"/>
   <feBlend xmlns="http://www.w3.org/2000/svg" in="SourceGraphic" in2="pf_100_dropShadow" mode="normal"/>
  </filter>
 </defs>
 <g filter="url(#a35fR1B9MCvZhATyroLYynKWwBhOoEZ5)">
  <linearGradient id="_lgradient_39" x1="-.033" x2="1.433" y1="-.071" y2="1.395" gradientTransform="matrix(244.648,0,0,228.338,5.676,11.947)" gradientUnits="userSpaceOnUse">
   <stop offset="0%" style="stop-color:rgb(243,126,64)"/>
   <stop offset="100%" style="stop-color:rgb(250,200,46)"/>
  </linearGradient>
  <path fill="url(#_lgradient_39)" d="M 165.685 11.947 C 239.74 11.947 250.324 22.504 250.324 96.491 L 250.324 155.742 C 250.324 229.728 239.74 240.285 165.685 240.285 L 90.315 240.285 C 16.26 240.285 5.676 229.728 5.676 155.742 L 5.676 96.491 C 5.676 22.504 16.26 11.947 90.315 11.947 L 165.685 11.947 Z"/>
 </g>
 <g opacity=".4">
  <linearGradient id="_lgradient_40" x1=".517" x2=".517" y1="0" y2="1">
   <stop offset="0%" style="stop-color:rgb(255,255,255)"/>
   <stop offset="12.5%" stop-opacity=".098" style="stop-color:rgb(255,255,255)"/>
   <stop offset="92.5%" stop-opacity=".098" style="stop-color:rgb(0,0,0)"/>
   <stop offset="100%" stop-opacity=".498" style="stop-color:rgb(0,0,0)"/>
  </linearGradient>
  <path fill="none" stroke="url(#_lgradient_40)" stroke-linecap="round" stroke-linejoin="round" stroke-width="4.077" d="M 165.685 11.947 C 239.74 11.947 250.324 22.504 250.324 96.491 L 250.324 155.742 C 250.324 229.728 239.74 240.285 165.685 240.285 L 90.315 240.285 C 16.26 240.285 5.676 229.728 5.676 155.742 L 5.676 96.491 C 5.676 22.504 16.26 11.947 90.315 11.947 L 165.685 11.947 Z" vector-effect="non-scaling-stroke"/>
 </g>
 <g opacity=".1">
  <path fill="#FFFFFF" d="M 249.643 83.58 L 44.234 236.61 C 55.796 238.921 70.66 239.629 89.757 239.629 L 165.127 239.629 C 239.182 239.629 249.766 229.071 249.766 155.085 L 249.766 95.834 C 249.766 91.531 249.725 87.464 249.643 83.58 L 249.643 83.58 Z"/>
 </g>
 <g filter="url(#bPqDZVg0mpBDojIcmZsN8Ciq1QJWnAG7)">
  <linearGradient id="_lgradient_41" x1=".631" x2=".636" y1=".775" y2=".141" gradientTransform="matrix(163.099,0,0,89.541,45.892,100.995)" gradientUnits="userSpaceOnUse">
   <stop offset="0%" stop-opacity=".996" style="stop-color:rgb(243,230,210)"/>
   <stop offset="100%" style="stop-color:rgb(247,244,238)"/>
  </linearGradient>
  <path fill="url(#_lgradient_41)" d="M 45.892 100.995 L 45.892 154.406 C 45.892 161.568 47.244 166.721 49.882 169.862 C 52.395 172.877 57.292 174.423 64.58 174.423 L 81.887 174.423 L 104.711 190.536 L 127.537 174.423 L 190.304 174.423 C 197.592 174.423 202.488 172.877 205.001 169.862 C 207.64 166.721 208.991 161.568 208.991 154.406 L 208.991 100.995 L 45.892 100.995 Z"/>
  <linearGradient id="_lgradient_42" x1=".361" x2=".361" y1=".01" y2=".967" gradientTransform="matrix(163.099,0,0,122.164,45.892,68.371)" gradientUnits="userSpaceOnUse">
   <stop offset="0%" style="stop-color:rgb(253,253,251)"/>
   <stop offset="100%" style="stop-color:rgb(240,233,223)"/>
  </linearGradient>
  <path fill="url(#_lgradient_42)" d="M 64.579 68.375 C 57.293 68.284 52.396 70.003 49.883 73.019 C 47.245 76.16 45.892 81.313 45.892 88.475 L 45.892 151.893 L 81.887 174.423 L 104.712 190.535 L 127.537 174.423 L 127.537 174.423 L 208.991 112.573 L 208.991 88.475 C 208.991 81.313 207.639 76.16 205.001 73.019 C 202.488 70.003 197.592 68.375 190.304 68.375 L 178.142 68.375 L 97.669 68.375 L 64.579 68.375 Z"/>
  <path fill="#FBC58C" d="M 78.512 100.995 L 78.512 109.15 L 176.372 109.15 L 176.372 100.995 L 78.512 100.995 Z"/>
  <g opacity=".1">
   <linearGradient id="_lgradient_43" x1=".612" x2=".714" y1=".365" y2=".498" gradientTransform="matrix(81.454,0,0,61.85,127.537,112.573)" gradientUnits="userSpaceOnUse">
    <stop offset="0%" stop-opacity=".996" style="stop-color:rgb(230,162,64)"/>
    <stop offset="100%" stop-opacity=".275" style="stop-color:rgb(234,178,97)"/>
   </linearGradient>
   <path fill="url(#_lgradient_43)" d="M 208.991 112.573 L 127.537 174.423 L 190.304 174.423 C 197.592 174.423 202.488 172.878 205.001 169.862 C 207.639 166.721 208.991 161.568 208.991 154.406 L 208.991 112.573 Z"/>
  </g>
  <g opacity=".1">
   <linearGradient id="_lgradient_44" x1=".368" x2=".178" y1=".105" y2=".353" gradientTransform="matrix(35.994,0,0,22.704,45.892,151.893)" gradientUnits="userSpaceOnUse">
    <stop offset="0%" stop-opacity=".996" style="stop-color:rgb(230,162,64)"/>
    <stop offset="100%" stop-opacity=".275" style="stop-color:rgb(234,178,97)"/>
   </linearGradient>
   <path fill="url(#_lgradient_44)" d="M 45.892 151.893 L 45.892 154.406 C 45.892 161.568 47.245 166.721 49.883 169.862 C 52.396 172.878 57.342 175.276 64.579 174.423 L 81.887 174.423 L 45.892 151.893 Z"/>
  </g>
  <path fill="#FBC58C" d="M 78.512 125.459 L 78.512 133.614 L 127.442 133.614 L 127.442 125.459 L 78.512 125.459 Z"/>
  <path fill="#FFFFFF" d="M 64.58 68.375 C 57.293 68.284 52.395 70.004 49.882 73.02 C 47.244 76.161 45.892 81.314 45.892 88.475 L 45.892 90.514 C 45.892 83.352 47.244 78.2 49.882 75.058 C 52.395 72.043 57.293 70.322 64.58 70.414 L 97.669 70.414 L 178.141 70.414 L 190.304 70.414 C 197.592 70.414 202.489 72.043 205.001 75.058 C 207.64 78.2 208.991 83.352 208.991 90.514 L 208.991 88.475 C 208.991 81.314 207.64 76.161 205.001 73.02 C 202.489 70.004 197.592 68.375 190.304 68.375 L 178.141 68.375 L 97.669 68.375 L 64.58 68.375 Z"/>
 </g>
 <defs>
  <filter id="bPqDZVg0mpBDojIcmZsN8Ciq1QJWnAG7" width="223.099" height="182.164" x="15.89" y="42.37" filterUnits="userSpaceOnUse">
   <feGaussianBlur xmlns="http://www.w3.org/2000/svg" in="SourceGraphic" stdDeviation="4.294"/>
   <feOffset xmlns="http://www.w3.org/2000/svg" dx="0" dy="4" result="pf_100_offsetBlur"/>
   <feFlood xmlns="http://www.w3.org/2000/svg" flood-opacity=".4"/>
   <feComposite xmlns="http://www.w3.org/2000/svg" in2="pf_100_offsetBlur" operator="in" result="pf_100_dropShadow"/>
   <feBlend xmlns="http://www.w3.org/2000/svg" in="SourceGraphic" in2="pf_100_dropShadow" mode="normal"/>
  </filter>
 </defs>
</svg>
